X: 13
T: PHILLIBELULAH ALL THE WAY
S: "COUNTRY DANCES OF TODAY 2", CDSS, May Gadd ed., 1951 p.14
R: hornpipe
Z: 2010 John Chambers <jc:trillian.mit.edu>
M: 4/4
L: 1/8
K: D
"A"|: f>e |\
"D"d>c d>B A2 G>F | "Em"E>E F>G "A"A2 B>c | "D"d>B A>B d>d e>c | "D"d6 :|
"B"[|] d>e |\
"D"f2 f2 "Bm"f2 g>f | "Em"g>f e2 "A"e4 | "Bm"d2 d2 "E7"d2 e>d | "A"c>B A2 "A7"A2 B>c |
"D"(3ded (3cBA "G"B>c d2 | "D"(3ded (3cBA "G"B>c "D"d>f | "Em"e2 (3efg "A7"a2 (3ABc | "D"d6 |]


%%sep 5 1 500

%%sep 1 1 500

